X:70
T:Match Breaking. HSJJ.072
M:6/8
L:1/8
Q:3/8=110
S:HSJ Jackson,Wyresdale,Lancs.1823
R:.Quadrille
O:England
A:Lancashire
H:1823
Z:vmp.Chris Partington.
K:F
c|f2a(f2c)|A2c(B2c)|A2c cBA|GGGG2c|!
f2af2c|^c2db2g|f2ec’2e|f2zz2||!
a|b2g efg|a2f fga|g2c cde|f2ca2f|!
b2g efg|a2f fga|gc’e gfe|c2″ DC”zz2|]

